launcher/android/assets/skins/day/svg/add-wp.svg

<svg enable-background="new 0 0 257.00 257.00" height="257" viewBox="0 0 257 257" width="257" xmlns="http://www.w3.org/2000/svg" xmlns:xlink="http://www.w3.org/1999/xlink"><linearGradient id="a"><stop offset=".0186047" stop-color="#e3d191"/><stop offset=".55814" stop-color="#e2af00"/><stop offset=".787252" stop-color="#ab7800"/><stop offset="1" stop-color="#744100"/></linearGradient><linearGradient id="b" gradientUnits="objectBoundingBox" x1="0" x2="1" xlink:href="#a" y1=".500002" y2=".500002"/><linearGradient id="c" gradientTransform="matrix(.962737714378 .270436856428 -.270436856428 .962737714378 .108359479117 -.022423840081)" gradientUnits="objectBoundingBox" x1=".135552" x2="1.08855" y1=".382006" y2=".382006"><stop offset=".0186047" stop-color="#cebe83"/><stop offset=".55814" stop-color="#c79c07"/><stop offset=".787252" stop-color="#8f6604"/><stop offset="1" stop-color="#573101"/></linearGradient><linearGradient id="d" gradientTransform="matrix(.965924218131 .258825046754 -.258825046754 .965924218131 .099963049259 -.018102514851)" gradientUnits="objectBoundingBox" x1=".118731" x2="1.11874" xlink:href="#a" y1=".370587" y2=".370587"/><linearGradient id="e"><stop offset=".0186047" stop-color="#d7b77e"/><stop offset=".55814" stop-color="#d4b780"/><stop offset=".787252" stop-color="#d7bc89"/><stop offset="1" stop-color="#dbc292"/></linearGradient><linearGradient id="f" gradientUnits="objectBoundingBox" x1="0" x2="1" xlink:href="#e" y1=".5" y2=".5"/><linearGradient id="g" gradientUnits="objectBoundingBox" x1="-.0142857" x2="1.01429" xlink:href="#e" y1=".5" y2=".5"/><linearGradient id="h"><stop offset=".0186047" stop-color="#e5d5b4"/><stop offset="1" stop-color="#efe4d0"/></linearGradient><linearGradient id="i" gradientUnits="objectBoundingBox" x1="0" x2="1" xlink:href="#h" y1=".485328" y2=".485328"/><linearGradient id="j" gradientUnits="objectBoundingBox" x1="-.0168539" x2="1.01685" xlink:href="#h" y1=".484031" y2=".484031"/><linearGradient id="k" gradientUnits="objectBoundingBox" x1="0" x2="1" xlink:href="#h" y1=".5" y2=".5"/><linearGradient id="l" gradientUnits="objectBoundingBox" x1="-.03125" x2="1.03125" xlink:href="#h" y1=".5" y2=".5"/><linearGradient id="m"><stop offset=".0186047" stop-color="#d9bf8d"/><stop offset="1" stop-color="#d7b77e"/></linearGradient><linearGradient id="n" gradientUnits="objectBoundingBox" x1=".0473923" x2="1" xlink:href="#m" y1=".485131" y2=".485131"/><linearGradient id="o" gradientUnits="objectBoundingBox" x1=".0272265" x2="1.02228" xlink:href="#m" y1=".484616" y2=".484616"/><linearGradient id="p"><stop offset=".0186047" stop-color="#e7d7b9"/><stop offset="1" stop-color="#eee2cd"/></linearGradient><linearGradient id="q" gradientUnits="objectBoundingBox" x1="0" x2="1" xlink:href="#p" y1=".484211" y2=".484211"/><linearGradient id="r" gradientUnits="objectBoundingBox" x1="-.0199115" x2="1.01991" xlink:href="#p" y1=".483146" y2=".483146"/><linearGradient id="s" gradientUnits="objectBoundingBox" x1="0" x2="1" xlink:href="#p" y1=".500002" y2=".500002"/><linearGradient id="t" gradientUnits="objectBoundingBox" x1="-.0330883" x2="1.03309" xlink:href="#p" y1=".500002" y2=".500002"/><linearGradient id="u" gradientTransform="matrix(.835210209593 .549930819095 -.549930819095 .835210209593 .167400210582 .007381776503)" gradientUnits="objectBoundingBox" x1=".0713832" x2="1.03221" y1=".283012" y2=".283012"><stop offset=".0186047" stop-color="#58a406"/><stop offset="1" stop-color="#163b02"/></linearGradient><linearGradient id="v"><stop offset=".0186047" stop-color="#7de30f"/><stop offset="1" stop-color="#235e03"/></linearGradient><linearGradient id="w" gradientTransform="matrix(.834891133771 .550415111303 -.550415111303 .834891133771 .16576147005 .009535336208)" gradientUnits="objectBoundingBox" x1=".0669872" x2="1.03742" xlink:href="#v" y1=".281063" y2=".281063"/><linearGradient id="x" gradientUnits="objectBoundingBox" x1="0" x2="1" y1=".5" y2=".5"><stop offset=".0186047" stop-color="#7de30f"/><stop offset="1" stop-color="#64be0c"/></linearGradient><linearGradient id="y" gradientUnits="objectBoundingBox" x1="0" x2="1" xlink:href="#v" y1=".368428" y2=".368428"/><linearGradient id="z" gradientUnits="objectBoundingBox" x1=".0100334" x2="1" xlink:href="#v" y1=".5" y2=".5"/><linearGradient id="A" gradientUnits="objectBoundingBox" x1="0" x2=".964238" y1=".49999" y2=".49999"><stop offset=".0186047" stop-color="#7de30f"/><stop offset="1" stop-color="#163a01"/></linearGradient><linearGradient id="B" gradientUnits="objectBoundingBox" x1="-.0252396" x2=".971609" y1=".504507" y2=".504507"><stop offset=".0186047" stop-color="#2e6f05"/><stop offset="1" stop-color="#133401"/></linearGradient><linearGradient id="C" gradientUnits="objectBoundingBox" x1="0" x2="1" y1=".499997" y2=".499997"><stop offset=".0186047" stop-color="#3c8406"/><stop offset="1" stop-color="#153801"/></linearGradient><g stroke-linejoin="round"><path d="m98.5776 26.1908h18.0004c12.702 0 23 10.2973 23 23v160.5002c0 12.702-10.298 23-23 23h-18.0004c-12.7026 0-23-10.298-23-23v-160.5002c0-12.7027 10.2974-23 23-23z" fill="url(#b)" stroke-width=".2"/><g stroke-width="3"><path d="m108.077 26.1915c17.949 0 32.5 6.9402 32.5 15.5002 0 8.5603-14.55 15.5-32.5 15.5-17.9491 0-32.4996-6.9397-32.4996-15.5 0-8.56 14.5515-15.5002 32.4996-15.5002z" fill="url(#d)" stroke="url(#c)"/><path d="m119.078 69.1915v59.9995l75 14 30-17-27.5-36.9995z" fill="url(#g)" stroke="url(#f)"/><path d="m119.578 67.1915 5.625-1.1668 8.5-3.75 5-4.5 2.5-4.5 67.375 14.9168-14 19z" fill="url(#j)" stroke="url(#i)"/><path d="m208.578 68.1915 33 41.9995-17 17-31-39.9995z" fill="url(#l)" stroke="url(#k)"/><path d="m102.911 69.8582-45.3334 33.9998-22 50.667 32.6665 2 34.6669-30z" fill="url(#o)" stroke="url(#n)"/><path d="m56.9109 103.858-28.6668-10.6665 46-33.3333.7088-.5 4.25 5 9.0412 3.5 15.3339.6665z" fill="url(#r)" stroke="url(#q)"/><path d="m28.2441 93.1915-16.6665 45.3335 23.3333 16 22-49.334z" fill="url(#t)" stroke="url(#s)"/></g><path d="m115.586 155.344 32.667 5.334.667-35.334 29.333 2.667-.167 38.167 34.5 5.5v32.5l-33.5-6v38.5l-30-7.5v-37l-34-7.5z" fill="url(#w)" stroke="url(#u)"/><path d="m115.836 155.178 29-6 4.5.5v11.5z" fill="url(#x)" stroke-width=".2"/><path d="m149.17 125.678 26.083-5.584 27.583 1.917-25.333 6z" fill="url(#y)" stroke-width=".2"/><path d="m177.836 166.011 24.667-6.333v-37.667l-24.917 5.917z" fill="url(#z)" stroke-width=".2"/><path d="m202.503 159.678 36.917 7.333-27.25 5-35.667-6z" fill="url(#A)" stroke-width=".2"/><path d="m212.503 204.011 26.417-5.5v-31.5l-26.334 5.083z" fill="url(#B)" stroke-width=".2"/><path d="m178.836 236.011 23.667-6.333v-28.667l-24-4.333z" fill="url(#C)" stroke-width=".2"/></g></svg>

﻿<?xml version="1.0" encoding="utf-8"?>
<!DOCTYPE svg PUBLIC "-//W3C//DTD SVG 1.1//EN" "http://www.w3.org/Graphics/SVG/1.1/DTD/svg11.dtd">
<svg xmlns="http://www.w3.org/2000/svg" xmlns:xlink="http://www.w3.org/1999/xlink" version="1.1" baseProfile="full" width="257" height="257" viewBox="0 0 257.00 257.00" enable-background="new 0 0 257.00 257.00" xml:space="preserve">
	<g>
		<linearGradient id="SVGID_Fill1_" gradientUnits="objectBoundingBox" x1="0" y1="0.500002" x2="1" y2="0.500002">
			<stop offset="0.0186047" stop-color="#E3D191" stop-opacity="1"/>
			<stop offset="0.55814" stop-color="#E2AF00" stop-opacity="1"/>
			<stop offset="0.787252" stop-color="#AB7800" stop-opacity="1"/>
			<stop offset="1" stop-color="#744100" stop-opacity="1"/>
		</linearGradient>
		<path fill="url(#SVGID_Fill1_)" stroke-width="0.2" stroke-linejoin="round" d="M 98.5776,26.1908L 116.578,26.1908C 129.28,26.1908 139.578,36.4881 139.578,49.1908L 139.578,209.691C 139.578,222.393 129.28,232.691 116.578,232.691L 98.5776,232.691C 85.875,232.691 75.5776,222.393 75.5776,209.691L 75.5776,49.1908C 75.5776,36.4881 85.875,26.1908 98.5776,26.1908 Z "/>
		<linearGradient id="SVGID_Stroke1_" gradientUnits="objectBoundingBox" x1="0.135552" y1="0.382006" x2="1.08855" y2="0.382006" gradientTransform="rotate(15.690264 0.135552 0.382006)">
			<stop offset="0.0186047" stop-color="#CEBE83" stop-opacity="1"/>
			<stop offset="0.55814" stop-color="#C79C07" stop-opacity="1"/>
			<stop offset="0.787252" stop-color="#8F6604" stop-opacity="1"/>
			<stop offset="1" stop-color="#573101" stop-opacity="1"/>
		</linearGradient>
		<linearGradient id="SVGID_Fill2_" gradientUnits="objectBoundingBox" x1="0.118731" y1="0.370587" x2="1.11874" y2="0.370587" gradientTransform="rotate(15.000356 0.118731 0.370587)">
			<stop offset="0.0186047" stop-color="#E3D191" stop-opacity="1"/>
			<stop offset="0.55814" stop-color="#E2AF00" stop-opacity="1"/>
			<stop offset="0.787252" stop-color="#AB7800" stop-opacity="1"/>
			<stop offset="1" stop-color="#744100" stop-opacity="1"/>
		</linearGradient>
		<path fill="url(#SVGID_Fill2_)" stroke-width="3" stroke-linejoin="round" stroke="url(#SVGID_Stroke1_)" d="M 108.077,26.1915C 126.026,26.1915 140.577,33.1317 140.577,41.6917C 140.577,50.252 126.027,57.1917 108.077,57.1917C 90.1279,57.1917 75.5774,50.252 75.5774,41.6917C 75.5774,33.1317 90.1289,26.1915 108.077,26.1915 Z "/>
		<linearGradient id="SVGID_Stroke2_" gradientUnits="objectBoundingBox" x1="0" y1="0.5" x2="1" y2="0.5">
			<stop offset="0.0186047" stop-color="#D7B77E" stop-opacity="1"/>
			<stop offset="0.55814" stop-color="#D4B780" stop-opacity="1"/>
			<stop offset="0.787252" stop-color="#D7BC89" stop-opacity="1"/>
			<stop offset="1" stop-color="#DBC292" stop-opacity="1"/>
		</linearGradient>
		<linearGradient id="SVGID_Fill3_" gradientUnits="objectBoundingBox" x1="-0.0142857" y1="0.5" x2="1.01429" y2="0.5">
			<stop offset="0.0186047" stop-color="#D7B77E" stop-opacity="1"/>
			<stop offset="0.55814" stop-color="#D4B780" stop-opacity="1"/>
			<stop offset="0.787252" stop-color="#D7BC89" stop-opacity="1"/>
			<stop offset="1" stop-color="#DBC292" stop-opacity="1"/>
		</linearGradient>
		<path fill="url(#SVGID_Fill3_)" stroke-width="3" stroke-linejoin="round" stroke="url(#SVGID_Stroke2_)" d="M 119.078,69.1915L 119.078,129.191L 194.078,143.191L 224.078,126.191L 196.578,89.1915L 119.078,69.1915 Z "/>
		<linearGradient id="SVGID_Stroke3_" gradientUnits="objectBoundingBox" x1="0" y1="0.485328" x2="1" y2="0.485328">
			<stop offset="0.0186047" stop-color="#E5D5B4" stop-opacity="1"/>
			<stop offset="1" stop-color="#EFE4D0" stop-opacity="1"/>
		</linearGradient>
		<linearGradient id="SVGID_Fill4_" gradientUnits="objectBoundingBox" x1="-0.0168539" y1="0.484031" x2="1.01685" y2="0.484031">
			<stop offset="0.0186047" stop-color="#E5D5B4" stop-opacity="1"/>
			<stop offset="1" stop-color="#EFE4D0" stop-opacity="1"/>
		</linearGradient>
		<path fill="url(#SVGID_Fill4_)" stroke-width="3" stroke-linejoin="round" stroke="url(#SVGID_Stroke3_)" d="M 119.578,67.1915L 125.203,66.0247L 133.703,62.2747L 138.703,57.7747L 141.203,53.2747L 208.578,68.1915L 194.578,87.1915L 119.578,67.1915 Z "/>
		<linearGradient id="SVGID_Stroke4_" gradientUnits="objectBoundingBox" x1="0" y1="0.5" x2="1" y2="0.5">
			<stop offset="0.0186047" stop-color="#E5D5B4" stop-opacity="1"/>
			<stop offset="1" stop-color="#EFE4D0" stop-opacity="1"/>
		</linearGradient>
		<linearGradient id="SVGID_Fill5_" gradientUnits="objectBoundingBox" x1="-0.03125" y1="0.5" x2="1.03125" y2="0.5">
			<stop offset="0.0186047" stop-color="#E5D5B4" stop-opacity="1"/>
			<stop offset="1" stop-color="#EFE4D0" stop-opacity="1"/>
		</linearGradient>
		<path fill="url(#SVGID_Fill5_)" stroke-width="3" stroke-linejoin="round" stroke="url(#SVGID_Stroke4_)" d="M 208.578,68.1915L 241.578,110.191L 224.578,127.191L 193.578,87.1915L 208.578,68.1915 Z "/>
		<linearGradient id="SVGID_Stroke5_" gradientUnits="objectBoundingBox" x1="0.0473923" y1="0.485131" x2="1" y2="0.485131">
			<stop offset="0.0186047" stop-color="#D9BF8D" stop-opacity="1"/>
			<stop offset="1" stop-color="#D7B77E" stop-opacity="1"/>
		</linearGradient>
		<linearGradient id="SVGID_Fill6_" gradientUnits="objectBoundingBox" x1="0.0272265" y1="0.484616" x2="1.02228" y2="0.484616">
			<stop offset="0.0186047" stop-color="#D9BF8D" stop-opacity="1"/>
			<stop offset="1" stop-color="#D7B77E" stop-opacity="1"/>
		</linearGradient>
		<path fill="url(#SVGID_Fill6_)" stroke-width="3" stroke-linejoin="round" stroke="url(#SVGID_Stroke5_)" d="M 102.911,69.8582L 57.5776,103.858L 35.5776,154.525L 68.2441,156.525L 102.911,126.525L 102.911,69.8582 Z "/>
		<linearGradient id="SVGID_Stroke6_" gradientUnits="objectBoundingBox" x1="0" y1="0.484211" x2="1" y2="0.484211">
			<stop offset="0.0186047" stop-color="#E7D7B9" stop-opacity="1"/>
			<stop offset="1" stop-color="#EEE2CD" stop-opacity="1"/>
		</linearGradient>
		<linearGradient id="SVGID_Fill7_" gradientUnits="objectBoundingBox" x1="-0.0199115" y1="0.483146" x2="1.01991" y2="0.483146">
			<stop offset="0.0186047" stop-color="#E7D7B9" stop-opacity="1"/>
			<stop offset="1" stop-color="#EEE2CD" stop-opacity="1"/>
		</linearGradient>
		<path fill="url(#SVGID_Fill7_)" stroke-width="3" stroke-linejoin="round" stroke="url(#SVGID_Stroke6_)" d="M 56.9109,103.858L 28.2441,93.1915L 74.2441,59.8582L 74.9529,59.3582L 79.2029,64.3582L 88.2441,67.8582L 103.578,68.5247L 56.9109,103.858 Z "/>
		<linearGradient id="SVGID_Stroke7_" gradientUnits="objectBoundingBox" x1="0" y1="0.500002" x2="1" y2="0.500002">
			<stop offset="0.0186047" stop-color="#E7D7B9" stop-opacity="1"/>
			<stop offset="1" stop-color="#EEE2CD" stop-opacity="1"/>
		</linearGradient>
		<linearGradient id="SVGID_Fill8_" gradientUnits="objectBoundingBox" x1="-0.0330883" y1="0.500002" x2="1.03309" y2="0.500002">
			<stop offset="0.0186047" stop-color="#E7D7B9" stop-opacity="1"/>
			<stop offset="1" stop-color="#EEE2CD" stop-opacity="1"/>
		</linearGradient>
		<path fill="url(#SVGID_Fill8_)" stroke-width="3" stroke-linejoin="round" stroke="url(#SVGID_Stroke7_)" d="M 28.2441,93.1915L 11.5776,138.525L 34.9109,154.525L 56.9109,105.191L 28.2441,93.1915 Z "/>
	</g>
	<g>
		<linearGradient id="SVGID_Stroke8_" gradientUnits="objectBoundingBox" x1="0.0713832" y1="0.283012" x2="1.03221" y2="0.283012" gradientTransform="rotate(33.362267 0.071383 0.283012)">
			<stop offset="0.0186047" stop-color="#58A406" stop-opacity="1"/>
			<stop offset="1" stop-color="#163B02" stop-opacity="1"/>
		</linearGradient>
		<linearGradient id="SVGID_Fill9_" gradientUnits="objectBoundingBox" x1="0.0669872" y1="0.281063" x2="1.03742" y2="0.281063" gradientTransform="rotate(33.395496 0.066987 0.281063)">
			<stop offset="0.0186047" stop-color="#7DE30F" stop-opacity="1"/>
			<stop offset="1" stop-color="#235E03" stop-opacity="1"/>
		</linearGradient>
		<path fill="url(#SVGID_Fill9_)" stroke-linejoin="round" stroke="url(#SVGID_Stroke8_)" d="M 115.586,155.344L 148.253,160.678L 148.92,125.344L 178.253,128.011L 178.086,166.178L 212.586,171.678L 212.586,204.178L 179.086,198.178L 179.086,236.678L 149.086,229.178L 149.086,192.178L 115.086,184.678L 115.586,155.344 Z "/>
		<linearGradient id="SVGID_Fill10_" gradientUnits="objectBoundingBox" x1="0" y1="0.5" x2="1" y2="0.5">
			<stop offset="0.0186047" stop-color="#7DE30F" stop-opacity="1"/>
			<stop offset="1" stop-color="#64BE0C" stop-opacity="1"/>
		</linearGradient>
		<path fill="url(#SVGID_Fill10_)" stroke-width="0.2" stroke-linejoin="round" d="M 115.836,155.178L 144.836,149.178L 149.336,149.678L 149.336,161.178L 115.836,155.178 Z "/>
		<linearGradient id="SVGID_Fill11_" gradientUnits="objectBoundingBox" x1="0" y1="0.368428" x2="1" y2="0.368428">
			<stop offset="0.0186047" stop-color="#7DE30F" stop-opacity="1"/>
			<stop offset="1" stop-color="#235E03" stop-opacity="1"/>
		</linearGradient>
		<path fill="url(#SVGID_Fill11_)" stroke-width="0.2" stroke-linejoin="round" d="M 149.17,125.678L 175.253,120.094L 202.836,122.011L 177.503,128.011L 149.17,125.678 Z "/>
		<linearGradient id="SVGID_Fill12_" gradientUnits="objectBoundingBox" x1="0.0100334" y1="0.5" x2="1" y2="0.5">
			<stop offset="0.0186047" stop-color="#7DE30F" stop-opacity="1"/>
			<stop offset="1" stop-color="#235E03" stop-opacity="1"/>
		</linearGradient>
		<path fill="url(#SVGID_Fill12_)" stroke-width="0.2" stroke-linejoin="round" d="M 177.836,166.011L 202.503,159.678L 202.503,122.011L 177.586,127.928L 177.836,166.011 Z "/>
		<linearGradient id="SVGID_Fill13_" gradientUnits="objectBoundingBox" x1="0" y1="0.49999" x2="0.964238" y2="0.49999">
			<stop offset="0.0186047" stop-color="#7DE30F" stop-opacity="1"/>
			<stop offset="1" stop-color="#163A01" stop-opacity="1"/>
		</linearGradient>
		<path fill="url(#SVGID_Fill13_)" stroke-width="0.2" stroke-linejoin="round" d="M 202.503,159.678L 239.42,167.011L 212.17,172.011L 176.503,166.011L 202.503,159.678 Z "/>
		<linearGradient id="SVGID_Fill14_" gradientUnits="objectBoundingBox" x1="-0.0252396" y1="0.504507" x2="0.971609" y2="0.504507">
			<stop offset="0.0186047" stop-color="#2E6F05" stop-opacity="1"/>
			<stop offset="1" stop-color="#133401" stop-opacity="1"/>
		</linearGradient>
		<path fill="url(#SVGID_Fill14_)" stroke-width="0.2" stroke-linejoin="round" d="M 212.503,204.011L 238.92,198.511L 238.92,167.011L 212.586,172.094L 212.503,204.011 Z "/>
		<linearGradient id="SVGID_Fill15_" gradientUnits="objectBoundingBox" x1="0" y1="0.499997" x2="1" y2="0.499997">
			<stop offset="0.0186047" stop-color="#3C8406" stop-opacity="1"/>
			<stop offset="1" stop-color="#153801" stop-opacity="1"/>
		</linearGradient>
		<path fill="url(#SVGID_Fill15_)" stroke-width="0.2" stroke-linejoin="round" d="M 178.836,236.011L 202.503,229.678L 202.503,201.011L 178.503,196.678L 178.836,236.011 Z "/>
	</g>
</svg>
